X:1
T:Two Maidens Went Milking One Day
M:4/4
L:1/8
K:D
 A,| D2 FD E2 GF| D6 z D| F2 FF F2 EG| F4 z2 FG| AB AF D2 FA| GG EC A,2 B,C|\
 D2 FA G2 EC| D2 FG A2 FG|A-d AFE-G EC| D6 z2|

